SVG_Azure_Grouped/Compute/Azure Stack Edge Management.svg

<?xml version="1.0" encoding="UTF-8" standalone="no"?>
<!-- Generated by Microsoft Visio, SVG Export Azure Stack Edge Management.svg Page-1 -->

<svg
   xmlns:dc="http://purl.org/dc/elements/1.1/"
   xmlns:cc="http://creativecommons.org/ns#"
   xmlns:rdf="http://www.w3.org/1999/02/22-rdf-syntax-ns#"
   xmlns:svg="http://www.w3.org/2000/svg"
   xmlns="http://www.w3.org/2000/svg"
   xmlns:sodipodi="http://sodipodi.sourceforge.net/DTD/sodipodi-0.dtd"
   xmlns:inkscape="http://www.inkscape.org/namespaces/inkscape"
   width="0.78735912in"
   height="0.78746814in"
   viewBox="0 0 56.689855 56.697846"
   xml:space="preserve"
   class="st5"
   version="1.1"
   id="svg57"
   sodipodi:docname="Azure Stack Edge Management.svg"
   style="font-size:12px;overflow:visible;color-interpolation-filters:sRGB;fill:none;fill-rule:evenodd;stroke-linecap:square;stroke-miterlimit:3"
   inkscape:version="0.92.5 (2060ec1f9f, 2020-04-08)"><metadata
   id="metadata61"><rdf:RDF><cc:Work
       rdf:about=""><dc:format>image/svg+xml</dc:format><dc:type
         rdf:resource="http://purl.org/dc/dcmitype/StillImage" /></cc:Work></rdf:RDF></metadata><sodipodi:namedview
   pagecolor="#ffffff"
   bordercolor="#666666"
   borderopacity="1"
   objecttolerance="10"
   gridtolerance="10"
   guidetolerance="10"
   inkscape:pageopacity="0"
   inkscape:pageshadow="2"
   inkscape:window-width="640"
   inkscape:window-height="480"
   id="namedview59"
   showgrid="false"
   inkscape:zoom="1.8365233"
   inkscape:cx="37.795184"
   inkscape:cy="18.902725"
   inkscape:window-x="0"
   inkscape:window-y="0"
   inkscape:window-maximized="0"
   inkscape:current-layer="svg57" />
	<style
   type="text/css"
   id="style2">
	<![CDATA[
		.st1 {fill:url(#grad0-6);stroke:none;stroke-linecap:butt;stroke-width:0.75}
		.st2 {fill:#949494;stroke:none;stroke-linecap:butt;stroke-width:0.75}
		.st3 {fill:url(#grad0-12);stroke:none;stroke-linecap:butt;stroke-width:0.75}
		.st4 {fill:#ffffff;stroke:none;stroke-linecap:butt;stroke-width:0.75}
		.st5 {fill:none;fill-rule:evenodd;font-size:12px;overflow:visible;stroke-linecap:square;stroke-miterlimit:3}
	]]>
	</style>

	<defs
   id="Patterns_And_Gradients">
		<linearGradient
   id="grad0-6"
   x1="0"
   y1="67.73533"
   x2="47.441129"
   y2="67.73533"
   gradientTransform="scale(1.1949547,0.8368518)"
   gradientUnits="userSpaceOnUse">
			<stop
   offset="0"
   stop-color="#5ea0ef"
   stop-opacity="1"
   id="stop4" />
			<stop
   offset="0.18"
   stop-color="#559cec"
   stop-opacity="1"
   id="stop6" />
			<stop
   offset="0.47"
   stop-color="#3c91e5"
   stop-opacity="1"
   id="stop8" />
			<stop
   offset="0.84"
   stop-color="#1380da"
   stop-opacity="1"
   id="stop10" />
			<stop
   offset="1"
   stop-color="#0078d4"
   stop-opacity="1"
   id="stop12" />
		</linearGradient>
		<linearGradient
   id="grad0-12"
   x1="-3.8278303e-07"
   y1="173.93074"
   x2="21.35997"
   y2="173.93074"
   gradientTransform="scale(2.0262201,0.49352979)"
   gradientUnits="userSpaceOnUse">
			<stop
   offset="0"
   stop-color="#0078d4"
   stop-opacity="1"
   id="stop15" />
			<stop
   offset="0.16"
   stop-color="#1380da"
   stop-opacity="1"
   id="stop17" />
			<stop
   offset="0.53"
   stop-color="#3c91e5"
   stop-opacity="1"
   id="stop19" />
			<stop
   offset="0.82"
   stop-color="#559cec"
   stop-opacity="1"
   id="stop21" />
			<stop
   offset="1"
   stop-color="#5ea0ef"
   stop-opacity="1"
   id="stop23" />
		</linearGradient>
	</defs>
	<g
   id="g55"
   transform="translate(-5.6693772,-5.6682326)">
		<title
   id="title27">Page-1</title>
		<g
   id="group11800-1"
   transform="translate(5.66929,-34.0157)">
			<title
   id="title29">Icon-484-EdgeManagementArtboard 1</title>
			<g
   id="group11801-2">
				<title
   id="title31">bc5f08d8-e18b-48db-a908-1aa1ac8</title>
				<g
   id="shape11802-3"
   transform="translate(0,-17.0005)">
					<title
   id="title33">Sheet.11802</title>
					<path
   d="M 56.69,83.93 A 12.8126,12.4475 -180 0 0 45.66,71.85 16.1386,15.6787 -180 0 0 29.1,56.69 16.5165,16.0459 -180 0 0 13.38,67.26 15.4205,14.981 -180 0 0 0,81.69 15.5717,15.1279 -180 0 0 15.99,96.38 h 1.4 25.85 l 0.6,-0.33 A 13.0016,12.6311 -180 0 0 56.69,83.93 Z"
   class="st1"
   id="path35"
   inkscape:connector-curvature="0"
   style="fill:url(#grad0-6);stroke:none;stroke-width:0.75;stroke-linecap:butt" />
				</g>
				<g
   id="shape11803-7"
   transform="translate(10.9984,-7.49051)">
					<title
   id="title38">Sheet.11803</title>
					<path
   d="M 33.64,89.11 H 18.52 V 70.75 H 16.25 V 89.11 H 1.13 A 1.13386,1.10155 -180 0 0 0,90.21 v 4.3 a 1.13386,1.10155 -180 0 0 1.13,1.1 1.09606,1.06483 -180 0 0 1.1,-1.1 v -3.24 h 14.02 v 2.24 h 2.23 v -2.24 h 14.06 v 4.01 a 1.13386,1.10155 -180 0 0 1.1,1.1 1.17165,1.13826 -180 0 0 1.13,-1.1 v -5.07 a 1.13386,1.10155 -180 0 0 -1.13,-1.1 z"
   class="st2"
   id="path40"
   inkscape:connector-curvature="0"
   style="fill:#949494;stroke:none;stroke-width:0.75;stroke-linecap:butt" />
				</g>
				<g
   id="shape11804-9"
   transform="translate(6.61417)">
					<title
   id="title43">Sheet.11804</title>
					<path
   d="m 41.88,96.38 h -7.86 a 1.36063,1.32186 0 0 1 -1.4,-1.36 V 87.2 a 1.39843,1.35857 0 0 1 1.4,-1.36 h 7.86 a 1.43622,1.39529 0 0 1 1.4,1.36 v 7.82 a 1.39843,1.35857 0 0 1 -1.4,1.36 z M 26.99,95.02 V 87.2 a 1.43622,1.39529 -180 0 0 -1.4,-1.36 h -7.86 a 1.39843,1.35857 -180 0 0 -1.4,1.36 v 7.82 a 1.36063,1.32186 -180 0 0 1.4,1.36 h 7.86 a 1.39843,1.35857 -180 0 0 1.4,-1.36 z m -16.22,0 V 87.2 A 1.43622,1.39529 -180 0 0 9.37,85.84 H 1.4 A 1.43622,1.39529 -180 0 0 0,87.2 v 7.82 a 1.39843,1.35857 -180 0 0 1.4,1.36 h 7.9 a 1.39843,1.35857 -180 0 0 1.47,-1.36 z"
   class="st3"
   id="path45"
   inkscape:connector-curvature="0"
   style="fill:url(#grad0-12);stroke:none;stroke-width:0.75;stroke-linecap:butt" />
				</g>
				<g
   id="shape11805-13"
   transform="translate(17.0835,-27.098)">
					<title
   id="title48">Sheet.11805</title>
					<path
   d="M 22.98,86.32 V 83.78 H 22.6 l -2.8,-0.88 -0.71,-1.72 1.4,-2.94 -1.82,-1.76 -0.38,0.18 -2.87,1.14 -1.81,-0.7 -1.14,-3.08 h -2.45 v 0.36 L 9.11,77.1 7.33,77.8 4.08,76.4 2.27,78.2 2.46,78.53 4.08,81.07 3.33,82.79 0,84.11 v 2.5 h 0.34 l 2.8,0.88 0.72,1.73 -1.4,2.94 1.81,1.76 h 0.38 l 2.61,-1.29 1.77,0.7 1.14,3.05 h 2.6 v -0.33 l 0.91,-2.72 1.78,-0.7 3.02,1.36 1.82,-1.76 -0.19,-0.37 -1.33,-2.53 0.72,-1.73 z m -11.34,3.67 a 5.02677,4.88352 0 1 1 4.99,-4.88 4.98898,4.8468 0 0 1 -5.22,4.88 z"
   class="st4"
   id="path50"
   inkscape:connector-curvature="0"
   style="fill:#ffffff;stroke:none;stroke-width:0.75;stroke-linecap:butt" />
				</g>
			</g>
		</g>
	</g>
</svg>

<?xml version="1.0" encoding="UTF-8" standalone="no"?>
<!DOCTYPE svg PUBLIC "-//W3C//DTD SVG 1.1//EN" "http://www.w3.org/Graphics/SVG/1.1/DTD/svg11.dtd">
<!-- Generated by Microsoft Visio, SVG Export Azure Stack Edge Management.svg Page-1 -->
<svg xmlns="http://www.w3.org/2000/svg" xmlns:xlink="http://www.w3.org/1999/xlink" xmlns:ev="http://www.w3.org/2001/xml-events"
		width="0.944882in" height="1.33858in" viewBox="0 0 68.0315 96.378" xml:space="preserve" color-interpolation-filters="sRGB"
		class="st5">
	<style type="text/css">
	<![CDATA[
		.st1 {fill:url(#grad0-6);stroke:none;stroke-linecap:butt;stroke-width:0.75}
		.st2 {fill:#949494;stroke:none;stroke-linecap:butt;stroke-width:0.75}
		.st3 {fill:url(#grad0-12);stroke:none;stroke-linecap:butt;stroke-width:0.75}
		.st4 {fill:#ffffff;stroke:none;stroke-linecap:butt;stroke-width:0.75}
		.st5 {fill:none;fill-rule:evenodd;font-size:12px;overflow:visible;stroke-linecap:square;stroke-miterlimit:3}
	]]>
	</style>

	<defs id="Patterns_And_Gradients">
		<linearGradient id="grad0-6" x1="0" y1="0" x2="1" y2="0" gradientTransform="rotate(90 0.5 0.5)">
			<stop offset="0" stop-color="#5ea0ef" stop-opacity="1"/>
			<stop offset="0.18" stop-color="#559cec" stop-opacity="1"/>
			<stop offset="0.47" stop-color="#3c91e5" stop-opacity="1"/>
			<stop offset="0.84" stop-color="#1380da" stop-opacity="1"/>
			<stop offset="1" stop-color="#0078d4" stop-opacity="1"/>
		</linearGradient>
		<linearGradient id="grad0-12" x1="0" y1="0" x2="1" y2="0" gradientTransform="rotate(-90 0.5 0.5)">
			<stop offset="0" stop-color="#0078d4" stop-opacity="1"/>
			<stop offset="0.16" stop-color="#1380da" stop-opacity="1"/>
			<stop offset="0.53" stop-color="#3c91e5" stop-opacity="1"/>
			<stop offset="0.82" stop-color="#559cec" stop-opacity="1"/>
			<stop offset="1" stop-color="#5ea0ef" stop-opacity="1"/>
		</linearGradient>
	</defs>
	<g>
		<title>Page-1</title>
		<g id="group11521-1" transform="translate(5.66929,-34.0157)">
			<title>Icon-484-EdgeManagementArtboard 1</title>
			<g id="group11522-2">
				<title>bc5f08d8-e18b-48db-a908-1aa1ac8</title>
				<g id="shape11523-3" transform="translate(0,-17.0005)">
					<title>Sheet.11523</title>
					<path d="M56.69 83.93 A12.8126 12.4475 -180 0 0 45.66 71.85 A16.1386 15.6787 -180 0 0 29.1 56.69 A16.5165 16.0459
								 -180 0 0 13.38 67.26 A15.4205 14.981 -180 0 0 0 81.69 A15.5717 15.1279 -180 0 0 15.99 96.38 L17.39
								 96.38 L43.24 96.38 L43.84 96.05 A13.0016 12.6311 -180 0 0 56.69 83.93 Z" class="st1"/>
				</g>
				<g id="shape11524-7" transform="translate(10.9984,-7.49051)">
					<title>Sheet.11524</title>
					<path d="M33.64 89.11 L18.52 89.11 L18.52 70.75 L16.25 70.75 L16.25 89.11 L1.13 89.11 A1.13386 1.10155 -180 0
								 0 -0 90.21 L0 94.51 A1.13386 1.10155 -180 0 0 1.13 95.61 A1.09606 1.06483 -180 0 0 2.23 94.51 L2.23
								 91.27 L16.25 91.27 L16.25 93.51 L18.48 93.51 L18.48 91.27 L32.54 91.27 L32.54 95.28 A1.13386 1.10155
								 -180 0 0 33.64 96.38 A1.17165 1.13826 -180 0 0 34.77 95.28 L34.77 90.21 A1.13386 1.10155 -180 0
								 0 33.64 89.11 Z" class="st2"/>
				</g>
				<g id="shape11525-9" transform="translate(6.61417,-1.13687E-13)">
					<title>Sheet.11525</title>
					<path d="M41.88 96.38 L34.02 96.38 A1.36063 1.32186 0 0 1 32.62 95.02 L32.62 87.2 A1.39843 1.35857 0 0 1 34.02
								 85.84 L41.88 85.84 A1.43622 1.39529 0 0 1 43.28 87.2 L43.28 95.02 A1.39843 1.35857 0 0 1 41.88 96.38
								 ZM26.99 95.02 L26.99 87.2 A1.43622 1.39529 -180 0 0 25.59 85.84 L17.73 85.84 A1.39843 1.35857 -180
								 0 0 16.33 87.2 L16.33 95.02 A1.36063 1.32186 -180 0 0 17.73 96.38 L25.59 96.38 A1.39843 1.35857
								 -180 0 0 26.99 95.02 ZM10.77 95.02 L10.77 87.2 A1.43622 1.39529 -180 0 0 9.37 85.84 L1.4 85.84 A1.43622
								 1.39529 -180 0 0 0 87.2 L0 95.02 A1.39843 1.35857 -180 0 0 1.4 96.38 L9.3 96.38 A1.39843 1.35857
								 -180 0 0 10.77 95.02 Z" class="st3"/>
				</g>
				<g id="shape11526-13" transform="translate(17.0835,-27.098)">
					<title>Sheet.11526</title>
					<path d="M22.98 86.32 L22.98 83.78 L22.6 83.78 L19.8 82.9 L19.09 81.18 L20.49 78.24 L18.67 76.48 L18.29 76.66
								 L15.42 77.8 L13.61 77.1 L12.47 74.02 L10.02 74.02 L10.02 74.38 L9.11 77.1 L7.33 77.8 L4.08 76.4
								 L2.27 78.2 L2.46 78.53 L4.08 81.07 L3.33 82.79 L0 84.11 L0 86.61 L0.34 86.61 L3.14 87.49 L3.86 89.22
								 L2.46 92.16 L4.27 93.92 L4.65 93.92 L7.26 92.63 L9.03 93.33 L10.17 96.38 L12.77 96.38 L12.77 96.05
								 L13.68 93.33 L15.46 92.63 L18.48 93.99 L20.3 92.23 L20.11 91.86 L18.78 89.33 L19.5 87.6 L22.98 86.32
								 ZM11.64 89.99 A5.02677 4.88352 0 1 1 16.63 85.11 A4.98898 4.8468 0 0 1 11.41 89.99 L11.64 89.99
								 Z" class="st4"/>
				</g>
			</g>
		</g>
	</g>
</svg>
